X:48
T:Rollie's Wharf
R:reel
C:Paul S. Cranford
O:Cape Breton Island
S:http://www.cranfordpub.com
D:currently unrecorded
B:currently unpublished in book form
Z:psc
H:                                                        copyrights Cranford Publications, SOCAN
L:1/8
Q:333
M:C|
K:D
dB|AdFd AD F2|gfed B2 dB|Adgb afgb|afdf e2 dB|
AdFd AD F2|gfed B2 dB|Adgb afgb|afef d2:|
|:ef|gfed eAaA|gAaA e2 ef|gfed eAaf|gecA d2 ef|
gfed eAaA|gAaA e2dB|Adgb afgb|afef d2 :|
